X: 37766
T: Son Of A Bear
R: reel
M: 4/4
K: Amajor
ac'ea c'eac'|bd'eb d'ebd'|eac'e ac'ec'|befg aeee|
ac'ea c'eac'|bd'eb d'ebd'|eac'e ac'ec'|befg a2ee|
ac'ea c'eac'|bd'eb d'ebd'|eac'e ac'ec'|befg aedc|
|:B3B- BAGB|Aceg a2ea|fedf edce|dBcA BAGF|
EB2B BAGB|Aceg a2ea|fedf edce|1 defg aecB:|2 defg aeee||

